polaris-icons/icons/PinUnfilledMinor.svg

<svg viewBox="0 0 20 20" xmlns="http://www.w3.org/2000/svg">
<path fill-rule="evenodd" d="M6.5 14.5H8.84953L9.25754 17.3561C9.31033 17.7256 9.62677 18 10 18C10.3732 18 10.6897 17.7256 10.7425 17.3561L11.1505 14.5H13.5C14.6046 14.5 15.5 13.6046 15.5 12.5V12C15.5 10.9141 14.6345 10.0303 13.5557 10.0008L12.9471 7.26197C13.574 6.92432 14 6.26191 14 5.5V5C14 3.89543 13.1046 3 12 3H8C6.89543 3 6 3.89543 6 5V5.5C6 6.26191 6.42604 6.92432 7.0529 7.26197L6.44428 10.0008C5.36547 10.0303 4.5 10.9141 4.5 12V12.5C4.5 13.6046 5.39543 14.5 6.5 14.5ZM7.98104 10H9.25C9.66421 10 10 10.3358 10 10.75C10 11.1642 9.66421 11.5 9.25 11.5H6.75V11.493L6.48529 11.5002C6.2164 11.5076 6 11.7288 6 12V12.5C6 12.7761 6.22386 13 6.5 13H13.5C13.7761 13 14 12.7761 14 12.5V12C14 11.7288 13.7836 11.5076 13.5147 11.5002L12.3452 11.4682L11.2366 6.47955L12.2358 5.94137C12.3963 5.85489 12.5 5.68842 12.5 5.5V5C12.5 4.72386 12.2761 4.5 12 4.5H8C7.72386 4.5 7.5 4.72386 7.5 5V5.5C7.5 5.68842 7.6037 5.85489 7.76424 5.94137L8.76336 6.47955L7.98104 10Z" fill="#5C5F62"/>
</svg>

<svg viewBox="0 0 20 20" xmlns="http://www.w3.org/2000/svg"><path fill-rule="evenodd" d="M6.5 14.5h2.35l.408 2.856a.75.75 0 0 0 1.485 0l.407-2.856h2.35a2 2 0 0 0 2-2v-.5a2 2 0 0 0-1.944-2l-.609-2.738a2 2 0 0 0 1.053-1.762v-.5a2 2 0 0 0-2-2h-4a2 2 0 0 0-2 2v.5a2 2 0 0 0 1.053 1.762l-.609 2.739a2 2 0 0 0-1.944 1.999v.5a2 2 0 0 0 2 2Zm1.481-4.5h1.269a.75.75 0 0 1 0 1.5h-2.5v-.007l-.265.007a.5.5 0 0 0-.485.5v.5a.5.5 0 0 0 .5.5h7a.5.5 0 0 0 .5-.5v-.5a.5.5 0 0 0-.485-.5l-1.17-.032-1.108-4.988.999-.539a.5.5 0 0 0 .264-.441v-.5a.5.5 0 0 0-.5-.5h-4a.5.5 0 0 0-.5.5v.5a.5.5 0 0 0 .264.441l1 .539-.783 3.52Z" fill="#5C5F62"/></svg>
